Origami/48x48/apps/electron.svg

<svg width="48" height="48" version="1.1" viewBox="0 0 48 48" xmlns="http://www.w3.org/2000/svg">
 <path d="M 24,5 A 20,20 0 0 0 4,25 20,20 0 0 0 24,45 20,20 0 0 0 44,25 20,20 0 0 0 24,5 Z" style="opacity:.2"/>
 <path d="m24 4a20 20 0 0 0 -20 20 20 20 0 0 0 20 20 20 20 0 0 0 20 -20 20 20 0 0 0 -20 -20z" style="fill:#74bfcc"/>
 <path d="m24 4a20 20 0 0 0 -19.859 17.852 20 19 0 0 1 19.859 -16.852 20 19 0 0 1 19.922 17.447 20 20 0 0 0 -19.922 -18.447zm19.922 18.447a20 20 0 0 1 0.078 1.553 20 19 0 0 0 -0.078 -1.553zm-39.781-0.595a20 19 0 0 0 -0.0488 0.392 20 20 0 0 1 0.0488 -0.392zm-0.0488 0.392a20 20 0 0 0 -0.0918 1.756 20 19 0 0 1 0.0918 -1.756z" fill="#ffffff" opacity=".2"/>
 <path d="m34.014872 23.970903s4.264245-3.744878 2.601629-7.215158c-1.662615-3.470281-10.588558-1.417917-16.792181 2.914897-4.46604 3.119226-6.901094 7.746448-6.822612 11.314999" style="fill:none;stroke-linecap:round;stroke-width:2.000237;stroke:#3f3f3f"/>
 <path d="M 23.859375 8.0039062 A 3 3 0 0 0 21.402344 9.5 A 3 3 0 0 0 22.5 13.597656 A 3 3 0 0 0 26.597656 12.5 A 3 3 0 0 0 25.5 8.4023438 A 3 3 0 0 0 23.859375 8.0039062 z M 36.929688 26 A 3 3 0 0 0 35.5 26.402344 A 3 3 0 0 0 34.402344 30.5 A 3 3 0 0 0 38.5 31.597656 A 3 3 0 0 0 39.597656 27.5 A 3 3 0 0 0 36.929688 26 z M 13 28 A 3 3 0 0 0 10 31 A 3 3 0 0 0 13 34 A 3 3 0 0 0 16 31 A 3 3 0 0 0 13 28 z" style="fill:#3f3f3f"/>
 <path d="m19 33s1.020783 4.870268 5.550683 5.05 6.021833-7.918111 5.371317-15.457013c-0.468309-5.427318-2.757675-9.849747-5.887372-11.566055" style="fill:none;stroke-linecap:round;stroke-width:2.000237;stroke:#3f3f3f"/>
 <path d="m20 15s-5.229558-3.016807-7.567 1.669639 4.566641 11.279273 11.42078 14.485361c4.934349 2.308091 10.095006-0.302757 13.14622-2.155" style="fill:none;stroke-linecap:round;stroke-width:2.000237;stroke:#3f3f3f"/>
 <path d="m24 11a1 1 0 0 0 -1 1 1 1 0 0 0 1 1 1 1 0 0 0 1 -1 1 1 0 0 0 -1 -1zm13 18a1 1 0 0 0 -1 1 1 1 0 0 0 1 1 1 1 0 0 0 1 -1 1 1 0 0 0 -1 -1zm-24 2a1 1 0 0 0 -1 1 1 1 0 0 0 1 1 1 1 0 0 0 1 -1 1 1 0 0 0 -1 -1z" style="opacity:.2"/>
 <path d="m24 10a1 1 0 0 0 -1 1 1 1 0 0 0 1 1 1 1 0 0 0 1 -1 1 1 0 0 0 -1 -1zm13 18a1 1 0 0 0 -1 1 1 1 0 0 0 1 1 1 1 0 0 0 1 -1 1 1 0 0 0 -1 -1zm-24 2a1 1 0 0 0 -1 1 1 1 0 0 0 1 1 1 1 0 0 0 1 -1 1 1 0 0 0 -1 -1z" style="fill:#74bfcc"/>
 <ellipse cx="24" cy="24" rx="2.126" ry="2.126" style="fill:#3f3f3f;stroke-width:1.7489965;stroke:#3f3f3f"/>
</svg>

<svg xmlns="http://www.w3.org/2000/svg" width="48" height="48" version="1.1" viewBox="0 0 48 48">
 <path style="opacity:0.2" d="M 24,5 A 20,20 0 0 0 4,25 20,20 0 0 0 24,45 20,20 0 0 0 44,25 20,20 0 0 0 24,5 Z"/>
 <path style="fill:#74bfcc" d="m24 4a20 20 0 0 0 -20 20 20 20 0 0 0 20 20 20 20 0 0 0 20 -20 20 20 0 0 0 -20 -20z"/>
 <path fill="#ffffff" opacity=".2" d="m24 4a20 20 0 0 0 -19.859 17.852 20 19 0 0 1 19.859 -16.852 20 19 0 0 1 19.922 17.447 20 20 0 0 0 -19.922 -18.447zm19.922 18.447a20 20 0 0 1 0.078 1.553 20 19 0 0 0 -0.078 -1.553zm-39.781-0.595a20 19 0 0 0 -0.0488 0.392 20 20 0 0 1 0.0488 -0.392zm-0.0488 0.392a20 20 0 0 0 -0.0918 1.756 20 19 0 0 1 0.0918 -1.756z"/>
 <path style="fill:none;stroke:#3f3f3f;stroke-width:2.00023699;stroke-linecap:round" d="m 34.014872,23.970903 c 0,0 4.264245,-3.744878 2.601629,-7.215158 -1.662615,-3.470281 -10.588558,-1.417917 -16.792181,2.914897 -4.46604,3.119226 -6.901094,7.746448 -6.822612,11.314999"/>
 <path style="fill:#3f3f3f" d="M 23.859375 8.0039062 A 3 3 0 0 0 21.402344 9.5 A 3 3 0 0 0 22.5 13.597656 A 3 3 0 0 0 26.597656 12.5 A 3 3 0 0 0 25.5 8.4023438 A 3 3 0 0 0 23.859375 8.0039062 z M 36.929688 26 A 3 3 0 0 0 35.5 26.402344 A 3 3 0 0 0 34.402344 30.5 A 3 3 0 0 0 38.5 31.597656 A 3 3 0 0 0 39.597656 27.5 A 3 3 0 0 0 36.929688 26 z M 13 28 A 3 3 0 0 0 10 31 A 3 3 0 0 0 13 34 A 3 3 0 0 0 16 31 A 3 3 0 0 0 13 28 z"/>
 <path style="fill:none;stroke:#3f3f3f;stroke-width:2.00023699;stroke-linecap:round" d="m 19,33 c 0,0 1.020783,4.870268 5.550683,5.05 4.5299,0.179732 6.021833,-7.918111 5.371317,-15.457013 -0.468309,-5.427318 -2.757675,-9.849747 -5.887372,-11.566055"/>
 <path style="fill:none;stroke:#3f3f3f;stroke-width:2.00023699;stroke-linecap:round" d="m 20,15 c 0,0 -5.229558,-3.016807 -7.567,1.669639 C 10.095558,21.356085 16.999641,27.948912 23.85378,31.155 28.788129,33.463091 33.948786,30.852243 37,29"/>
 <path style="opacity:0.2" d="m 24,11 a 1,1 0 0 0 -1,1 1,1 0 0 0 1,1 1,1 0 0 0 1,-1 1,1 0 0 0 -1,-1 z m 13,18 a 1,1 0 0 0 -1,1 1,1 0 0 0 1,1 1,1 0 0 0 1,-1 1,1 0 0 0 -1,-1 z m -24,2 a 1,1 0 0 0 -1,1 1,1 0 0 0 1,1 1,1 0 0 0 1,-1 1,1 0 0 0 -1,-1 z"/>
 <path style="fill:#74bfcc" d="M 24 10 A 1 1 0 0 0 23 11 A 1 1 0 0 0 24 12 A 1 1 0 0 0 25 11 A 1 1 0 0 0 24 10 z M 37 28 A 1 1 0 0 0 36 29 A 1 1 0 0 0 37 30 A 1 1 0 0 0 38 29 A 1 1 0 0 0 37 28 z M 13 30 A 1 1 0 0 0 12 31 A 1 1 0 0 0 13 32 A 1 1 0 0 0 14 31 A 1 1 0 0 0 13 30 z"/>
 <ellipse style="fill:#3f3f3f;stroke:#3f3f3f;stroke-width:1.7489965" cx="24" cy="24" rx="2.126" ry="2.126"/>
</svg>
